X:1
T:Maanschaft Pavane
T:from the movie Henry VIII
P:ABC DEF DEF
C:D. Munrow, based upon Turkelone
N:arr. Karen Kasper
K:C major
M:6/8
L:1/8
P:A
"A"e6 | "A"e3/d/e e2e | "Dm"f2e f2g | "F"a3 a3 | "C"g3 g3/f/g | "F"a2a "C"g2f | "Gm"e2d "A"^c3/B/c | "D"d3 d3 ::
P:B
"Dm"f3/e/d "A"^c3/B/c | "Dm"d3/e/d "A"^c3/d/e | "F"f3/g/a "C"e3/f/g | "Dm"f3/e/d "A"^c3 | "Dm"d3/e/f "C"e3/f/g | "F"a2a a3/g/f | "C"e2d "A"^c3/B/c | "D"d3 d3 ::
P:C
"G"G2^F G2A | "G"B3/A/B "Em"G3/A/B | "Am"c3/B/A "Dm"B3/A/"E"B | "A"A3 A3 ::\
P:D
"Dm"A2d d2^c | "Dm"d3/c/B A2B | "C"c2B "F"A2G/^F/ | "Gm"E/D/"A"E2 "Dm"D3 ::
P:E
"Dm"F/G/A2 "F"A2G/F/ | "C"E/D/E2 "Dm"D3 | "Dm"D2E F/G/A/F/G/F/ | "Dm"E/D/E"A"^C "D"D3 ::\
P:F
"F"F2F "C"C2C | "Dm"D2D "A"E3 | "A"E2F "C"E/F/"Gm"G/A/G/F/ | "A"E/D/E2 "D"D3 :|

